img/sect-features/1.svg

<svg width="120" height="104" viewBox="0 0 120 104" fill="none" xmlns="http://www.w3.org/2000/svg">
<path d="M100.136 45.7823C73.6735 30.4762 46.3265 30.4762 19.8639 45.7823C6.59864 53.4694 0 61.2245 0 68.9796C0 76.7347 6.59864 84.4898 19.8639 92.1769C46.3265 107.483 73.6735 107.483 100.136 92.1769C113.401 84.5578 120 76.7347 120 68.9796C120 61.2245 113.401 53.4694 100.136 45.7823Z" fill="#949494"/>
<path d="M100.136 80.6122C73.6735 95.9183 46.3265 95.9183 19.8639 80.6122C6.59864 72.9251 0 65.17 0 57.4149V68.9795C0 76.7346 6.59864 84.4897 19.8639 92.1768C46.3265 107.483 73.6735 107.483 100.136 92.1768C113.401 84.5578 120 76.7346 120 68.9795V57.4149C120 65.17 113.401 72.9251 100.136 80.6122Z" fill="url(#paint0_linear)"/>
<path d="M100.136 34.2176C73.6735 18.9115 46.3265 18.9115 19.8639 34.2176C6.59864 41.9047 0 49.6598 0 57.4149C0 65.17 6.59864 72.9251 19.8639 80.6122C46.3265 95.9183 73.6735 95.9183 100.136 80.6122C113.401 72.9931 120 65.17 120 57.4149C120 49.6598 113.401 41.9047 100.136 34.2176Z" fill="#9FCB00"/>
<path d="M35.8504 52.517L39.3197 54.5578L76.0544 75.7823C78.2313 77.0748 80.2721 77.1428 81.7007 76.3265L87.551 72.9251C88.9796 72.1088 89.864 70.2721 89.864 67.7551V38.1632C89.864 33.0612 86.2585 26.8707 81.9048 24.3537L45.1701 3.1292L41.7007 1.08839C39.5238 -0.204129 37.483 -0.272156 36.0544 0.544171L30.2041 3.94553C28.7755 4.76186 27.8912 6.53057 27.8912 9.04757V38.6394C27.8912 43.7415 31.4286 50 35.8504 52.517Z" fill="#C23700"/>
<path d="M27.8912 9.04761V38.6395C27.8912 43.7415 31.4966 49.932 35.8504 52.449L39.3197 54.4898L76.0544 75.7143C78.2313 77.0068 80.2721 77.0748 81.7007 76.2585C83.1293 75.4422 84.0136 73.6054 84.0136 71.0884V41.4966C84.0136 36.3946 80.4082 30.2041 76.0544 27.6871L39.3197 6.46258L35.8504 4.42176C33.6735 3.12925 31.6327 3.06122 30.2041 3.87754C28.7755 4.7619 27.8912 6.53061 27.8912 9.04761Z" fill="#262626"/>
<path d="M34.0136 27.4149C34.0136 25.9864 33.0612 24.2857 31.9048 23.4694C31.8367 23.4013 31.7687 23.3333 31.6327 23.3333C31.5646 23.2653 31.4286 23.2653 31.3606 23.1972C30.2041 22.653 29.2517 23.2653 29.2517 24.6938C29.2517 26.1224 30.1361 27.7551 31.3606 28.6394C31.4286 28.7074 31.5646 28.7755 31.6327 28.8435C31.7007 28.9115 31.7687 28.9115 31.9048 28.9796C33.0612 29.4557 34.0136 28.8435 34.0136 27.4149Z" fill="#525252"/>
<path d="M76.0544 71.1565C78.2313 72.449 80.068 71.3605 80.068 68.8435V39.1837C80.068 36.6667 78.2993 33.5374 76.0544 32.2449L41.7007 12.449L75.3061 70.6803L76.0544 71.1565Z" fill="#1AB5FF"/>
<path d="M41.7007 12.449L39.3198 11.0884C37.1429 9.79589 35.3062 10.8843 35.3062 13.4013V42.9932C35.3062 45.5102 37.0749 48.6394 39.3198 49.9319L75.3062 70.7483L41.7007 12.449Z" fill="#169DFF"/>
<path d="M81.9048 24.2857L45.1701 3.06121L41.7007 1.0204C39.5238 -0.272122 37.483 -0.340149 36.0544 0.476178L30.2041 3.87754C31.6327 3.06121 33.6735 3.12924 35.8504 4.42176L39.3197 6.46257L76.0544 27.6871C80.4762 30.2041 84.0136 36.4626 84.0136 41.4966V71.0884C84.0136 73.6054 83.1293 75.4422 81.7007 76.2585L87.551 72.8571C88.9796 72.0408 89.864 70.2041 89.864 67.6871V38.1633C89.932 33.0612 86.3265 26.8707 81.9048 24.2857Z" fill="url(#paint1_linear)"/>
<defs>
<linearGradient id="paint0_linear" x1="0" y1="80.5116" x2="120.003" y2="80.5116" gradientUnits="userSpaceOnUse">
<stop stop-color="#B3E500"/>
<stop offset="0.0554341" stop-color="#B4E700"/>
<stop offset="0.3006" stop-color="#B6EA00"/>
<stop offset="0.3353" stop-color="#B4E700"/>
<stop offset="0.569" stop-color="#A8D600"/>
<stop offset="0.7441" stop-color="#A4D000"/>
<stop offset="1" stop-color="#809B00"/>
</linearGradient>
<linearGradient id="paint1_linear" x1="46.008" y1="-5.21722" x2="90.2294" y2="71.3763" gradientUnits="userSpaceOnUse">
<stop stop-color="#383838"/>
<stop offset="0.0957136" stop-color="#3D3B3C"/>
<stop offset="0.3006" stop-color="#403D3E"/>
<stop offset="0.5494" stop-color="#302D2E"/>
<stop offset="0.7441" stop-color="#2A2728"/>
<stop offset="1"/>
</linearGradient>
</defs>
</svg>

<svg width="120" height="104" viewBox="0 0 120 104" fill="none" xmlns="http://www.w3.org/2000/svg"><path d="M100.136 45.782c-26.462-15.306-53.81-15.306-80.272 0C6.599 53.47 0 61.225 0 68.98c0 7.755 6.599 15.51 19.864 23.197 26.463 15.306 53.81 15.306 80.272 0C113.401 84.557 120 76.735 120 68.98c0-7.756-6.599-15.51-19.864-23.198z" fill="#949494"/><path d="M100.136 80.612c-26.462 15.306-53.81 15.306-80.272 0C6.599 72.925 0 65.17 0 57.415V68.98c0 7.755 6.599 15.51 19.864 23.197 26.463 15.306 53.81 15.306 80.272 0C113.401 84.557 120 76.735 120 68.979V57.416c0 7.755-6.599 15.51-19.864 23.197z" fill="url(#a)"/><path d="M100.136 34.218c-26.462-15.307-53.81-15.307-80.272 0C6.599 41.905 0 49.66 0 57.415c0 7.755 6.599 15.51 19.864 23.197 26.463 15.306 53.81 15.306 80.272 0C113.401 72.993 120 65.17 120 57.415c0-7.755-6.599-15.51-19.864-23.197z" fill="#9FCB00"/><path d="M35.85 52.517l3.47 2.04 36.734 21.225c2.177 1.293 4.218 1.36 5.647.544l5.85-3.4c1.429-.817 2.313-2.654 2.313-5.17V38.162c0-5.102-3.606-11.292-7.96-13.81L45.17 3.13 41.7 1.09C39.525-.205 37.484-.273 36.055.543l-5.85 3.402c-1.428.816-2.313 2.585-2.313 5.102v29.591c0 5.102 3.538 11.361 7.96 13.878z" fill="#C23700"/><path d="M27.891 9.048v29.591c0 5.102 3.606 11.293 7.96 13.81l3.469 2.04 36.734 21.225c2.177 1.293 4.218 1.36 5.647.544 1.428-.816 2.313-2.653 2.313-5.17V41.497c0-5.102-3.606-11.293-7.96-13.81L39.32 6.463l-3.47-2.041c-2.177-1.293-4.217-1.36-5.646-.544-1.428.884-2.313 2.653-2.313 5.17z" fill="#262626"/><path d="M34.014 27.415c0-1.429-.953-3.13-2.11-3.946-.067-.068-.135-.136-.271-.136-.068-.068-.204-.068-.272-.136-1.157-.544-2.11.068-2.11 1.497 0 1.428.885 3.061 2.11 3.945.068.068.204.137.272.204.068.069.136.069.272.137 1.156.476 2.109-.137 2.109-1.565z" fill="#525252"/><path d="M76.054 71.156c2.177 1.293 4.014.204 4.014-2.313v-29.66c0-2.516-1.769-5.646-4.014-6.938L41.701 12.449 75.306 70.68l.748.476z" fill="#1AB5FF"/><path d="M41.7 12.449l-2.38-1.36c-2.177-1.293-4.014-.205-4.014 2.312v29.592c0 2.517 1.769 5.646 4.014 6.939l35.986 20.816L41.701 12.45z" fill="#169DFF"/><path d="M81.905 24.286L45.17 3.06 41.7 1.02C39.525-.273 37.484-.34 36.055.475l-5.85 3.402c1.429-.817 3.47-.749 5.646.544l3.47 2.04 36.734 21.225c4.422 2.517 7.96 8.776 7.96 13.81v29.591c0 2.517-.885 4.354-2.313 5.17l5.85-3.4c1.429-.817 2.313-2.654 2.313-5.17V38.162c.068-5.102-3.538-11.292-7.96-13.877z" fill="url(#b)"/><defs><linearGradient id="a" y1="80.512" x2="120.003" y2="80.512" gradientUnits="userSpaceOnUse"><stop stop-color="#B3E500"/><stop offset=".055" stop-color="#B4E700"/><stop offset=".301" stop-color="#B6EA00"/><stop offset=".335" stop-color="#B4E700"/><stop offset=".569" stop-color="#A8D600"/><stop offset=".744" stop-color="#A4D000"/><stop offset="1" stop-color="#809B00"/></linearGradient><linearGradient id="b" x1="46.008" y1="-5.217" x2="90.229" y2="71.376" gradientUnits="userSpaceOnUse"><stop stop-color="#383838"/><stop offset=".096" stop-color="#3D3B3C"/><stop offset=".301" stop-color="#403D3E"/><stop offset=".549" stop-color="#302D2E"/><stop offset=".744" stop-color="#2A2728"/><stop offset="1"/></linearGradient></defs></svg>
